!!!COM: Palestrina, Giovanni Perluigi da
!!!OPR: Missa In te Domine speravi (1599)
!!!OMD: Kyrie
!!!OTL: First Section
**kern	**kern	**kern	**kern	**kern	**kern
*Ibass	*Itenor	*Itenor	*Icalto	*Icant	*Icant
!Bassus	!Tenor 2	!Tenor 1	!Altus	!Cantus 2	!Cantus 1
*clefF4	*clefGv2	*clefGv2	*clefG2	*clefG2	*clefG2
*k[]	*k[]	*k[]	*k[]	*k[]	*k[]
*C:ion	*C:ion	*C:ion	*C:ion	*C:ion	*C:ion
*M4/2	*M4/2	*M4/2	*M4/2	*M4/2	*M4/2
=1	=1	=1	=1	=1	=1
0r	0r	1f	0r	0r	0r
.	.	2f	.	.	.
.	.	[2f	.	.	.
=2	=2	=2	=2	=2	=2
0r	0r	2f]	0r	0r	0r
.	.	2f	.	.	.
.	.	2e	.	.	.
.	.	2d	.	.	.
=3	=3	=3	=3	=3	=3
0r	0r	2.f	0r	0r	1cc
.	.	8e	.	.	.
.	.	8d	.	.	.
.	.	1c	.	.	2cc
.	.	.	.	.	[2cc
=4	=4	=4	=4	=4	=4
0r	0r	2r	0r	0r	2cc]
.	.	2c	.	.	2cc
.	.	2d	.	.	2b
.	.	[2f	.	.	2a
=5	=5	=5	=5	=5	=5
0r	1r	4f]	0r	0r	1cc
.	.	4e	.	.	.
.	.	4c	.	.	.
.	.	4d	.	.	.
.	1c	1e	.	.	1g
=6	=6	=6	=6	=6	=6
0r	2c	2.A	0r	0r	2a
.	1c	.	.	.	2.cc
.	.	4B	.	.	.
.	.	4c	.	.	.
.	.	4d	.	.	4b
.	2c	4e	.	.	4g
.	.	4f	.	.	4a
=7	=7	=7	=7	=7	=7
0r	2B	2g	1r	0r	2b
.	2A	2f	.	.	2.cc
.	1c	2.e	1g	.	.
.	.	.	.	.	4g
.	.	.	.	.	[2cc
.	.	8d	.	.	.
.	.	8c	.	.	.
=8	=8	=8	=8	=8	=8
0r	1G	1d	2g	1r	2cc]
.	.	.	1g	.	2b
.	1c	2e	.	2r	1cc
.	.	2e	2g	2cc	.
=9	=9	=9	=9	=9	=9
0r	2F	2a	2f	2cc	2r
.	4c	2g	2e	1cc	2.ee
.	4d	.	.	.	.
.	4e	1c	2.g	.	.
.	4f	.	.	.	4dd
.	[2g	.	.	2cc	4ee
.	.	.	8f	.	4cc
.	.	.	8e	.	.
=10	=10	=10	=10	=10	=10
0r	2g]	1r	1d	2b	2dd
.	2f#	.	.	2a	2dd
.	2.g	2.c	1r	1cc	1ee
.	4f	4d	.	.	.
=11	=11	=11	=11	=11	=11
1c	4e	1.e	0r	1g	1ee
.	4d	.	.	.	.
.	4c	.	.	.	.
.	4B	.	.	.	.
2c	2.A	.	.	2a	2.cc
[2c	.	2e	.	[2cc	.
.	4B	.	.	.	4dd
=12	=12	=12	=12	=12	=12
2c]	4c	1e	0r	4cc]	4ee
.	4d	.	.	4b	4ff
2c	4e	.	.	4g	1gg
.	4f	.	.	4a	.
2B	2g	2d	.	2b	.
2A	2a	[2c	.	[2cc	2ff
=13	=13	=13	=13	=13	=13
1c	2g	4c]	1g	4cc]	1ee
.	.	4d	.	4g	.
.	2c	4e	.	1cc	.
.	.	4f	.	.	.
1G	1d	2g	2g	.	1dd
.	.	2d	[2g	2b	.
=14	=14	=14	=14	=14	=14
2r	2c	2e	2g]	2cc	0r
2G	2G	2d	2g	2b	.
2A	2c	1c	2f	2.cc	.
[2c	[2e	.	2e	.	.
.	.	.	.	4dd	.
=15	=15	=15	=15	=15	=15
4c]	4e]	0r	2g	1ee	1cc
4B	4d	.	.	.	.
4A	4c	.	1a	.	.
4G	4B	.	.	.	.
2F	2A	.	.	1r	2cc
2E	[2e	.	[2g	.	[2cc
=16	=16	=16	=16	=16	=16
1A	2e]	0r	2g]	1r	2cc]
.	4d	.	2f	.	2cc
.	4c	.	.	.	.
2G	1d	.	2g	2r	2b
2D	.	.	2f	2dd	2a
=17	=17	=17	=17	=17	=17
2.A	1c	1r	1e	2ee	1cc
.	.	.	.	4cc	.
4B	.	.	.	4dd	.
2c	1r	1c	2r	4ee	1g
.	.	.	.	4ff	.
2C	.	.	2e	2gg	.
=18	=18	=18	=18	=18	=18
1F	1r	2c	2f	1ff	2a
.	.	1c	2a	.	2.cc
1C	2r	.	1g	1ee	.
.	.	.	.	.	4b
.	2c	2c	.	.	4g
.	.	.	.	.	4a
=19	=19	=19	=19	=19	=19
0r	2d	2B	2g	2dd	2b
.	2f	2A	2.c	2cc	2cc
.	1e	1c	.	1ee	2g
.	.	.	4d	.	.
.	.	.	4e	.	[2cc
.	.	.	4f	.	.
=20	=20	=20	=20	=20	=20
0r	2r	1G	1.g	2dd	2cc]
.	2d	.	.	2.gg	2b
.	2e	1c	.	.	1cc
.	.	.	.	4ff	.
.	[2g	.	2cc	2ee	.
=21	=21	=21	=21	=21	=21
0r	4g]	0r	2b	1dd	1r
.	4f	.	.	.	.
.	4d	.	1a	.	.
.	4e	.	.	.	.
.	2f	.	.	2cc	2r
.	2g	.	[2g	2b	[2dd
=22	=22	=22	=22	=22	=22
1r	1d	2r	2g]	1a	2dd]
.	.	2d	2f#	.	2dd
2r	1r	2e	1g	1g	1b
2G	.	2g	.	.	.
=23	=23	=23	=23	=23	=23
2A	0r	2f	1c	0r	2cc
2.c	.	4e	.	.	2.ee
.	.	4d	.	.	.
.	.	4e	1g	.	.
4B	.	4f	.	.	4dd
4G	.	[2g	.	.	4b
4A	.	.	.	.	4cc
=24	=24	=24	=24	=24	=24
2B	0r	4g]	2r	1r	2dd
.	.	4f	.	.	.
2c	.	2e	1g	.	1cc
1G	.	1d	.	2r	.
.	.	.	2g	2dd	2b
=25	=25	=25	=25	=25	=25
1C	2r	1c	2e	2ee	0cc
.	2G	.	2.c	2gg	.
2r	2A	2r	.	2ff	.
.	.	.	4d	.	.
2C	[2c	[2g	4e	4ee	.
.	.	.	4f	4dd	.
=26	=26	=26	=26	=26	=26
4C	4c]	2g]	0g	4ee	2r
4D	4B	.	.	4ff	.
4E	4G	2e	.	2.gg	2cc
4F	4A	.	.	.	.
2G	2B	2d	.	.	2b
.	.	.	.	4ff	.
2C	2c	2c	.	[2ee	2g
=27	=27	=27	=27	=27	=27
2.E	0G	2B	1.g	4ee]	1.gg
.	.	.	.	4dd	.
.	.	2e	.	1cc	.
4F	.	.	.	.	.
1G	.	1d	.	.	.
.	.	.	2g	2b	2dd
=28	=28	=28	=28	=28	=28
0C	0G	0c	0g	0cc	0ee
*-	*-	*-	*-	*-	*-
!!!CDT: 1525/^1526/-1594/2/2
!!!OCY: Italia
!!!AGN: Mass (Parody)
!!!AST: renaissance, vocal
!!!ASW: Motet 1532 (Lupus Hellinck)
!!!PWK: Masses, Book 9
!!!RNB: Cadence finals: G,D
!!!YOR: Le Opere Complete, v. 25, p. 131
!!!YOO: Rome, Italy: Fratelli Scalera
!!!END: 1992//
!!!EED: John Miller
!!!YEC: Copyright 2000, John Miller
!!!YEN: United States of America
!!!YEM: Rights to all derivative electronic formats reserved.
!!!YEM: Refer to licensing agreement for further details.
!!!YEM: This file must be accompanied by the licensing agreement.
!!!YEM: A copy of the licensing agreement may be found at http://www.music-cog.ohio-state.edu/HumdrumDatabases/Palestrina/license.txt
!!!EMD: converted to Humdrum by Bret Aarden
